X:1
T:Title
%%score 1 2
L:1/8
Q:1/4=100
M:4/4
K:G
V:1 bass nm="Church Organ, Soprano"
V:2 bass nm="Church Organ, Bass"
V:1
 z4 z2 [G,B,]>[A,C] | [B,D]2 [B,D]>[CE] [B,D]2 G,>[F,A,] | [G,B,]6 [G,B,]>[G,B,] | %3
w: 1.~Tell~ me~|not~ of~ the~ pleas ures~ of~|sin,~ For~ I~|
 [F,A,]2 [F,A,]>[G,B,] [A,C]2 [G,B,]>[F,A,] | [G,B,]6 [G,B,]>[K:treble][A,C] | %5
w: now~ from~ its~ bond age~ am~|free,~ And~ the~|
 [B,D]2 [B,D]>[CE] [B,D]2[K:bass] G,>[F,A,] | [G,B,]6 [G,B,]>[G,B,] | %7
w: joys~ of~ the~ One~ cru ci|fied~ Have~ ec|
 [F,A,]2 [F,A,]>[K:treble][A,D] [DF]2 [^CE]>[A,E] | [A,D]6 [B,D]>[B,D] | %9
w: clipsed~ all~ its~ fol lies~ to~|me.~ Shall~ I~|
 [CE]2 [CE]>[CE] [G,C]2 [CE]>[CE] | [B,D]6 [G,B,]>[G,B,] | %11
w: shrink~ from~ the~ thorns~ in~ the~|way,~ When~ He~|
 [F,A,]2 [F,A,]>[G,B,] [A,C]2 [G,B,]>[F,A,] | [G,B,]6[K:treble] [B,D]>[B,D] | %13
w: lend eth~ me~ fa vor~ and~|breath,~ When~ the~|
 [CE]2 [CE]>[CE] [EG]2 [DF]>[CE] | [B,D]6 [G,B,]>[G,B,] | %15
w: thorns~ He~ hath~ borne~ on~ His~|brow,~ When~ He~|
 [F,A,]2 [F,A,]>[G,B,] [A,C]2[Q:1/4=100] [G,B,]>[F,A,][Q:1/4=12] | [G,B,]6 z2 |] %17
w: tast ed~ the~ sor rows~ of~|death?~|
V:2
 z4 z2 [G,,D,]>[G,,D,] | [G,,G,]2 [G,,G,]>[G,,G,] [G,,G,]2 [B,,D,]>[A,,D,] | %2
 [G,,D,]6 [G,,D,]>[G,,D,] | D,2 D,>D, [D,F,]2 [D,G,]>D, | [G,,D,]6 [G,,D,]>[G,,D,] | %5
 [G,,G,]2 [G,,G,]>[G,,G,] [G,,G,]2 [B,,D,]>[A,,D,] | [G,,D,]6 [G,,D,]>[G,,D,] | %7
 [A,,D,]2 [A,,D,]>[A,,F,] [A,,A,]2 [A,,G,]>[^C,G,] | [D,F,]6 [G,,G,]>[G,,G,] | %9
 [C,G,]2 [C,G,]>[C,G,] [C,E,]2 [C,G,]>[C,G,] | [G,,G,]6 [G,,G,]>[G,,G,] | D,2 D,>D, D,2 D,>D, | %12
 [G,,D,]6 [G,,G,]>[G,,G,] | [C,G,]2 [C,G,]>[C,G,] [C,G,C]2 [C,G,]>[C,G,] | %14
 [G,,G,]6 [G,,G,]>[G,,G,] | D,2 D,>D, D,2 D,>D, | [G,,D,]6 z2 |] %17

